assets/images/icons/ico-slide-1 1.svg

<svg width="33" height="34" viewBox="0 0 33 34" fill="none" xmlns="http://www.w3.org/2000/svg">
<mask id="path-1-inside-1" fill="white">
<path d="M5.5 9H27.5L33 33.2H0L5.5 9Z"/>
</mask>
<path d="M5.5 9V7.5H4.30266L4.0373 8.66757L5.5 9ZM27.5 9L28.9627 8.66757L28.6973 7.5H27.5V9ZM33 33.2V34.7H34.8792L34.4627 32.8676L33 33.2ZM0 33.2L-1.4627 32.8676C-1.56381 33.3125 -1.45694 33.7792 -1.17232 34.1358C-0.887687 34.4924 -0.456244 34.7 0 34.7V33.2ZM5.5 10.5H27.5V7.5H5.5V10.5ZM26.0373 9.33243L31.5373 33.5324L34.4627 32.8676L28.9627 8.66757L26.0373 9.33243ZM33 31.7H0V34.7H33V31.7ZM1.4627 33.5324L6.9627 9.33243L4.0373 8.66757L-1.4627 32.8676L1.4627 33.5324Z" fill="#DF0112" mask="url(#path-1-inside-1)"/>
<path d="M11 22.3077L15.1739 26L23 18" stroke="#0000FF" stroke-width="1.5"/>
<circle cx="16.5" cy="4.5" r="3.75" stroke="#DF0112" stroke-width="1.5"/>
</svg>

<svg width="33" height="34" fill="none" xmlns="http://www.w3.org/2000/svg"><mask id="a" fill="#fff"><path d="M5.5 9h22L33 33.2H0L5.5 9z"/></mask><path d="M5.5 9V7.5H4.303l-.266 1.168L5.5 9zm22 0l1.463-.332-.266-1.168H27.5V9zM33 33.2v1.5h1.88l-.417-1.832L33 33.2zm-33 0l-1.463-.332A1.5 1.5 0 000 34.7v-1.5zm5.5-22.7h22v-3h-22v3zm20.537-1.168l5.5 24.2 2.926-.664-5.5-24.2-2.926.664zM33 31.7H0v3h33v-3zM1.463 33.532l5.5-24.2-2.926-.664-5.5 24.2 2.926.664z" fill="#DF0112" mask="url(#a)"/><path d="M11 22.308L15.174 26 23 18" stroke="#00F" stroke-width="1.5"/><circle cx="16.5" cy="4.5" r="3.75" stroke="#DF0112" stroke-width="1.5"/></svg>
